X:59
T: Mrs Malaprop
C:Claire Mann
D:Claire Mann- Claire Mann
T: The Tune written for Claire's Grandmother, who was a hilarious knack of getting words muddled up
M:6/8
L:1/8
R:jig
K:A
~E3 EFA | A2 a fec | ~f3 f2 e| fag fec|
~E3 EFA | Aca fec |fag fec| ABB cAF|
~E3 EFA | Aca fec |~f3 f2 e| fag fec|
~E3 EFA | A2 a fec |fag fec| ABB cAF||
|Aaa a2 e | fec BAB | Aaa afe | fba gfe |
Aaa a2 e| fec BAB | Aca fec | ABB cAF :||
